X:1
T:Let Heaven with Music Ring
T:Let Heaven with Music Ring
T:Robert Lowry
T:Julia A. Mathews, 1871
T:Public Domain Courtesy of the Cyber Hymnal™
C:Robert Lowry
Z:Public Domain
Z:Courtesy of the Cyber Hymnal™
%%score ( 1 2 ) ( 3 4 )
L:1/8
Q:1/4=110
M:4/4
K:Eb
V:1 treble 
V:2 treble 
V:3 bass 
V:4 bass 
V:1
 E2 | E3 E [EG]2 [GB]2 | [Ge]6 ([Bd][Ac]) | [GB]3 [Ac] [GB]2 [FA]2 | [EG]6 ([FA][EG]) | %5
w: 1.~Let|Heaven with mu- sic|ring, While *|joy- ous child- ren|sing Of *|
w: 2.~He|came, a lit- tle|child, Sin- *|less and un- de-|filed, Our *|
w: 3.~Now,|kneel- ing at His|feet, The *|Christ child hum- bly|greet, His *|
 (F2 B2) ([Fd]2 [Ec]2) | [DB]6 [GB]2 | [GB]3 [GB] ([Ac][GB]) ([FA][EG]) | [DF]6 [EG]2 | %9
w: Christ * the *|Lord; The|won- drous sto- * ry *|tell Of|
w: hearts * to *|win; In|man- ger low * was *|laid That|
w: praise * pro- *|long; Well|might that sweet * birth *|night With|
 [FA]3 [FA] ([GB][FA]) ([EG][DF]) | [EG]6 [GB]2 | [Ge]4 [GB]4 | [Ec]3 [Fd] [Ee]2 ([Bd][Ac]) | %13
w: Him who loved * us *|well, Who|came on|earth to dwell— The *|
w: no- ble, king- * ly *|head; The|sac- ri-|fice was made To *|
w: ra- diant stars * grow *|bright, When|Christ came|down in light, With *|
 ([GB]2 [FA]2) ([EG]2 [DF]2) | E6 |] %15
w: Son * of *|God.|
w: van- * quish *|sin.|
w: an- * gels’ *|song.|
V:2
 E2 | E3 E x4 | x8 | x8 | x8 | D4 x4 | x8 | x8 | x8 | x8 | x8 | x8 | x8 | x8 | E6 |] %15
V:3
 [E,G,]2 | [E,G,]3 [E,G,] [E,B,]2 [E,E]2 | [E,B,]6 [E,E]2 | [E,E]3 [A,,E] [B,,E]2 [B,,B,]2 | %4
 [E,B,]6 [E,B,]2 | [F,B,]4 (B,2 =A,2) | [B,,B,]6 [E,B,]2 | [E,E]3 [E,E] [E,E]2 [E,B,]2 | %8
 [B,,B,]6 [B,,B,]2 | [B,,B,]3 [B,,B,] [B,,B,]2 [B,,B,]2 | [E,B,]6 z2 | z2 [E,B,]2 ([E,E]2 [E,E]2) | %12
 [A,E]3 [A,D] [A,C]2 [A,E]2 | (E2 B,2) (B,2 A,2) | [E,G,]6 |] %15
V:4
 x2 | x8 | x8 | x8 | x8 | x4 F,4 | x8 | x8 | x8 | x8 | x8 | x8 | x8 | B,4 B,,4 | x6 |] %15

